svgs/sharp-solid/toggle-off.svg

<svg xmlns="http://www.w3.org/2000/svg" viewBox="0 0 576 512"><!--! Font Awesome Pro 6.6.0 by @fontawesome - https://fontawesome.com License - https://fontawesome.com/license (Commercial License) Copyright 2024 Fonticons, Inc. --><path d="M512 128l0 256L64 384l0-256 448 0zm64-64l-64 0L64 64 0 64l0 64L0 384l0 64 64 0 448 0 64 0 0-64 0-256 0-64zM96 160l0 192 192 0 0-192L96 160z"/></svg>

<svg xmlns="http://www.w3.org/2000/svg" viewBox="0 0 576 512"><!--! Font Awesome Pro 6.4.0 by @fontawesome - https://fontawesome.com License - https://fontawesome.com/license (Commercial License) Copyright 2023 Fonticons, Inc. --><path d="M512 128V384H64V128H512zm64-64H512 64 0v64V384v64H64 512h64V384 128 64zM96 160V352H288V160H96z"/></svg>
